app/dist/common/images/hunan-warrant-pharmaceutical-coltd.svg

<svg height="18" viewBox="0 0 18 18" width="18" xmlns="http://www.w3.org/2000/svg"><path d="m0 0h18v18h-18z" fill="#f0f3fa"/><path d="m11.4 6h-4.8v-.3c0-.9.48-2.7 2.4-2.7s2.4 1.8 2.4 2.7z" fill="#f30100"/><path d="m11.4 12h-4.8v.3c0 .9.48 2.7 2.4 2.7s2.4-1.8 2.4-2.7zm.6-5.4v4.8h.6c.8 0 2.4-.48 2.4-2.4s-1.6-2.4-2.4-2.4z" fill="#26221f"/><path d="m6 6.6v4.8h-.6c-.8 0-2.4-.48-2.4-2.4s1.6-2.4 2.4-2.4z" fill="#aca9a4"/><path d="m5.4 6.6c-.8 0-2.4.48-2.4 2.4s1.6 2.4 2.4 2.4h.6v-4.8zm.2.4h-.2c-.34 0-.85.1-1.27.4-.4.29-.73.77-.73 1.6s.34 1.3.73 1.6c.42.3.93.4 1.27.4h.2z" fill="#26221f" fill-rule="evenodd"/><path d="m8.67 7h.33l2 3.28v-3.28h.33v4h-.33l-2-3.28v3.28h-.33v-1.8h-1.67v1.8h-.33v-4h.33v1.8h1.67z" fill="#26221f"/><path d="m11.4 5.4c0-.8-.48-2.4-2.4-2.4s-2.4 1.6-2.4 2.4v.6h4.8zm-.4.2v-.2c0-1.15-.85-2-2-2s-2 .85-2 2v.2z" fill="#272320" fill-rule="evenodd"/></svg>

<!-- by TradingView --><svg width="18" height="18" viewBox="0 0 18 18" xmlns="http://www.w3.org/2000/svg"><path fill="#F0F3FA" d="M0 0h18v18H0z"/><path d="M11.4 6H6.6v-.3C6.6 4.8 7.08 3 9 3s2.4 1.8 2.4 2.7V6Z" fill="#F30100"/><path d="M11.4 12H6.6v.3c0 .9.48 2.7 2.4 2.7s2.4-1.8 2.4-2.7V12ZM12 6.6v4.8h.6c.8 0 2.4-.48 2.4-2.4s-1.6-2.4-2.4-2.4H12Z" fill="#26221F"/><path d="M6 6.6v4.8h-.6C4.6 11.4 3 10.92 3 9s1.6-2.4 2.4-2.4H6Z" fill="#ACA9A4"/><path fill-rule="evenodd" d="M5.4 6.6C4.6 6.6 3 7.08 3 9s1.6 2.4 2.4 2.4H6V6.6h-.6Zm.2.4h-.2c-.34 0-.85.1-1.27.4-.4.29-.73.77-.73 1.6 0 .83.34 1.3.73 1.6.42.3.93.4 1.27.4h.2V7Z" fill="#26221F"/><path d="M8.67 7H9l2 3.28V7h.33v4H11L9 7.72V11h-.33V9.2H7V11h-.33V7H7v1.8h1.67V7Z" fill="#26221F"/><path fill-rule="evenodd" d="M11.4 5.4c0-.8-.48-2.4-2.4-2.4S6.6 4.6 6.6 5.4V6h4.8v-.6Zm-.4.2v-.2c0-1.15-.85-2-2-2s-2 .85-2 2v.2h4Z" fill="#272320"/></svg>
